X:36
T:E Papa Waiari
C: titi turea
Q:134
M:6/8
L:1/8
K:G 
BBB GAc|B3/^A/B (GF)G|A3/^G/A F=GA|1 B3/^A/B (GF)G :|2 G3/G/G G2 G||
W:E papS waiari,   ta    - ku nei ma -hi,  ta  -  ku nei ma-hi,he   tu  -   ku roi ma-ta.    ... tu -ku roi mata.
|:B2 A (G2 D)|EGE D3|GGG (F/G/)AF| (G3G3) :||
W:E   au -  e               ka ma- te   au              E    hi- ne  ho    -   ki   mai      rS.
|:BBG BBG| B2AA2F| AAF AAF |1A2GG2A:|2 A2GG2G||
W:MS-ku e  kau-te s       h koi-ta - nga  mS-ku  e  kau-te  s       h-koi ta-nga!    ... h-koi ta-nga!.
|:B2 A (G2 D)|EGE D3|GGG (F/G/)AF| (G3G3) :||
W:E   au -  e               ka ma- te   au              E    hi- ne  ho    -   ki   mai      rS.
